report_00007_2020-12-11T15:55:29.892Z/max-potential-fid/comparison/sorted/1_vs_2.svg

<svg width="640" height="500" xmlns="http://www.w3.org/2000/svg" xmlns:xlink="http://www.w3.org/1999/xlink"><path fill="#fff" d="M0 0h640v500H0z"/><defs><path id="d" stroke-width=".222" stroke="currentColor" d="M-1-1h2v2h-2z"/><path id="b" stroke-width=".222" stroke="currentColor" d="M0-1.33l-1.33 2h2.66z"/><path id="f" stroke-width=".222" stroke="currentColor" d="M0 1.33L1.265.411.782-1.067l-1.564-.009-.483 1.487z"/><use xlink:href="#b" id="c" stroke="currentColor" transform="rotate(180)"/><use xlink:href="#d" id="e" stroke="currentColor" transform="rotate(45)"/><circle id="a" stroke-width=".222" stroke="currentColor" cx="0" cy="0" r="1"/></defs><g fill="none" color="#000" stroke="currentColor"><path stroke="#000" d="M53.9 411.3h9m552.1 0h-9"/><text transform="translate(45.6 415.2)" stroke="none" fill="#000" font-family="Arial" font-size="12" text-anchor="end"><tspan>270</tspan></text></g><g fill="none" color="#000" stroke="currentColor"><path stroke="#000" d="M53.9 367h9m552.1 0h-9"/><text transform="translate(45.6 370.9)" stroke="none" fill="#000" font-family="Arial" font-size="12" text-anchor="end"><tspan>280</tspan></text></g><g fill="none" color="#000" stroke="currentColor"><path stroke="#000" d="M53.9 322.7h9m552.1 0h-9"/><text transform="translate(45.6 326.6)" stroke="none" fill="#000" font-family="Arial" font-size="12" text-anchor="end"><tspan>290</tspan></text></g><g fill="none" color="#000" stroke="currentColor"><path stroke="#000" d="M53.9 278.4h9m552.1 0h-9"/><text transform="translate(45.6 282.3)" stroke="none" fill="#000" font-family="Arial" font-size="12" text-anchor="end"><tspan>300</tspan></text></g><g fill="none" color="#000" stroke="currentColor"><path stroke="#000" d="M53.9 234.1h9m552.1 0h-9"/><text transform="translate(45.6 238)" stroke="none" fill="#000" font-family="Arial" font-size="12" text-anchor="end"><tspan>310</tspan></text></g><g fill="none" color="#000" stroke="currentColor"><path stroke="#000" d="M53.9 189.8h9m552.1 0h-9"/><text transform="translate(45.6 193.7)" stroke="none" fill="#000" font-family="Arial" font-size="12" text-anchor="end"><tspan>320</tspan></text></g><g fill="none" color="#000" stroke="currentColor"><path stroke="#000" d="M53.9 145.6h9m552.1 0h-9"/><text transform="translate(45.6 149.5)" stroke="none" fill="#000" font-family="Arial" font-size="12" text-anchor="end"><tspan>330</tspan></text></g><g fill="none" color="#000" stroke="currentColor"><path stroke="#000" d="M53.9 101.3h9m552.1 0h-9"/><text transform="translate(45.6 105.2)" stroke="none" fill="#000" font-family="Arial" font-size="12" text-anchor="end"><tspan>340</tspan></text></g><g fill="none" color="#000" stroke="currentColor"><path stroke="#000" d="M53.9 57h9M615 57h-9"/><text transform="translate(45.6 60.9)" stroke="none" fill="#000" font-family="Arial" font-size="12" text-anchor="end"><tspan>350</tspan></text></g><g fill="none" color="#000" stroke="currentColor"><path stroke="#000" d="M53.9 428v-9m0-400.9v9"/><text transform="translate(53.9 449.9)" stroke="none" fill="#000" font-family="Arial" font-size="12" text-anchor="middle"><tspan>0</tspan></text></g><g fill="none" color="#000" stroke="currentColor"><path stroke="#000" d="M110.6 428v-9m0-400.9v9"/><text transform="translate(110.6 449.9)" stroke="none" fill="#000" font-family="Arial" font-size="12" text-anchor="middle"><tspan>10</tspan></text></g><g fill="none" color="#000" stroke="currentColor"><path stroke="#000" d="M167.3 428v-9m0-400.9v9"/><text transform="translate(167.3 449.9)" stroke="none" fill="#000" font-family="Arial" font-size="12" text-anchor="middle"><tspan>20</tspan></text></g><g fill="none" color="#000" stroke="currentColor"><path stroke="#000" d="M223.9 428v-9m0-400.9v9"/><text transform="translate(223.9 449.9)" stroke="none" fill="#000" font-family="Arial" font-size="12" text-anchor="middle"><tspan>30</tspan></text></g><g fill="none" color="#000" stroke="currentColor"><path stroke="#000" d="M280.6 428v-9m0-400.9v9"/><text transform="translate(280.6 449.9)" stroke="none" fill="#000" font-family="Arial" font-size="12" text-anchor="middle"><tspan>40</tspan></text></g><g fill="none" color="#000" stroke="currentColor"><path stroke="#000" d="M337.3 428v-9m0-400.9v9"/><text transform="translate(337.3 449.9)" stroke="none" fill="#000" font-family="Arial" font-size="12" text-anchor="middle"><tspan>50</tspan></text></g><g fill="none" color="#000" stroke="currentColor"><path stroke="#000" d="M394 428v-9m0-400.9v9"/><text transform="translate(394 449.9)" stroke="none" fill="#000" font-family="Arial" font-size="12" text-anchor="middle"><tspan>60</tspan></text></g><g fill="none" color="#000" stroke="currentColor"><path stroke="#000" d="M450.6 428v-9m0-400.9v9"/><text transform="translate(450.6 449.9)" stroke="none" fill="#000" font-family="Arial" font-size="12" text-anchor="middle"><tspan>70</tspan></text></g><g fill="none" color="#000" stroke="currentColor"><path stroke="#000" d="M507.3 428v-9m0-400.9v9"/><text transform="translate(507.3 449.9)" stroke="none" fill="#000" font-family="Arial" font-size="12" text-anchor="middle"><tspan>80</tspan></text></g><g fill="none" color="#000" stroke="currentColor"><path stroke="#000" d="M564 428v-9m0-400.9v9"/><text transform="translate(564 449.9)" stroke="none" fill="#000" font-family="Arial" font-size="12" text-anchor="middle"><tspan>90</tspan></text></g><path stroke="#000" d="M53.9 18.1V428H615V18.1H53.9z" fill="none" color="#000"/><text transform="translate(275.6 467.9)" stroke="none" fill="#000" font-family="Arial" font-size="12" text-anchor="end" color="#000"><tspan>pages</tspan></text><path stroke="#9400D3" d="M283.9 464h42.2M53.9 402.4l5.7-8.9 5.6-17.7h5.7l5.7-4.4h11.3l5.7-4.4 5.6-4.5h39.7l5.7-4.4h11.3l5.7-4.4h39.7l5.6-4.4h17l5.7-4.5h22.7l5.6-4.4h11.4l5.6-4.4h22.7l5.7-4.5h17l5.6-4.4H360l5.6-4.4H411l5.6-4.4h17l5.7-4.5h17l5.7-4.4h17l5.6-4.4H496l5.6-4.5h22.7l5.7-4.4h5.7l5.6-4.4h11.4l5.6-4.4 5.7-4.5h5.7l5.6-13.3h11.4l5.6-4.4h5.7l5.7-22.1 5.6-39.9L615 26" fill="none" color="#000"/><text transform="translate(275.6 485.9)" stroke="none" fill="#000" font-family="Arial" font-size="12" text-anchor="end" color="#000"><tspan>pages+cached</tspan></text><path stroke="#009E73" d="M283.9 482h42.2M53.9 420.1h5.7l5.6-8.8h28.4l5.6-4.5h28.4l5.6-4.4H201.3l5.6-4.4h17l5.7-4.5h22.7l5.6-4.4h11.4l5.6-4.4h28.4l5.6-4.4h5.7l5.7-8.9 5.6-4.4 5.7-8.9h5.7l5.7-17.7 5.6-4.4 5.7-8.9 5.7-13.3h5.6l5.7-4.4h5.7l5.6-4.4h5.7l5.7-4.5h17l5.6-4.4h22.7l5.7-4.4h28.3l5.7-4.4H524.3l5.7-4.5h11.3l5.7-4.4 5.7-4.4h5.6l5.7-4.5 5.7-4.4 5.6-4.4 5.7-13.3h5.7l5.6-44.3L598 181l5.7-17.7 5.6-35.5 5.7-75.2" fill="none" color="#000"/><text transform="translate(467.2 467.9)" stroke="none" fill="#000" font-family="Arial" font-size="12" text-anchor="end" color="#000"><tspan>score p10=130</tspan></text><path stroke="#56B4E9" d="M475.5 464h42.2" fill="none" color="#000"/><g><text transform="translate(467.2 485.9)" stroke="none" fill="#000" font-family="Arial" font-size="12" text-anchor="end" color="#000"><tspan>score median=250</tspan></text><path stroke="#E69F00" d="M475.5 482h42.2" fill="none" color="#000"/></g><g fill="none" color="#000" stroke="currentColor"><path stroke="#000" d="M53.9 18.1V428H615V18.1H53.9z"/></g></svg>

<?xml version="1.0" encoding="utf-8"  standalone="no"?>
<svg 
 width="640" height="500"
 viewBox="0 0 640 500"
 xmlns="http://www.w3.org/2000/svg"
 xmlns:xlink="http://www.w3.org/1999/xlink"
>

<title>Gnuplot</title>
<desc>Produced by GNUPLOT 5.4 patchlevel 0 </desc>

<g id="gnuplot_canvas">

<rect x="0" y="0" width="640" height="500" fill="#ffffff"/>
<defs>

	<circle id='gpDot' r='0.5' stroke-width='0.5' stroke='currentColor'/>
	<path id='gpPt0' stroke-width='0.222' stroke='currentColor' d='M-1,0 h2 M0,-1 v2'/>
	<path id='gpPt1' stroke-width='0.222' stroke='currentColor' d='M-1,-1 L1,1 M1,-1 L-1,1'/>
	<path id='gpPt2' stroke-width='0.222' stroke='currentColor' d='M-1,0 L1,0 M0,-1 L0,1 M-1,-1 L1,1 M-1,1 L1,-1'/>
	<rect id='gpPt3' stroke-width='0.222' stroke='currentColor' x='-1' y='-1' width='2' height='2'/>
	<rect id='gpPt4' stroke-width='0.222' stroke='currentColor' fill='currentColor' x='-1' y='-1' width='2' height='2'/>
	<circle id='gpPt5' stroke-width='0.222' stroke='currentColor' cx='0' cy='0' r='1'/>
	<use xlink:href='#gpPt5' id='gpPt6' fill='currentColor' stroke='none'/>
	<path id='gpPt7' stroke-width='0.222' stroke='currentColor' d='M0,-1.33 L-1.33,0.67 L1.33,0.67 z'/>
	<use xlink:href='#gpPt7' id='gpPt8' fill='currentColor' stroke='none'/>
	<use xlink:href='#gpPt7' id='gpPt9' stroke='currentColor' transform='rotate(180)'/>
	<use xlink:href='#gpPt9' id='gpPt10' fill='currentColor' stroke='none'/>
	<use xlink:href='#gpPt3' id='gpPt11' stroke='currentColor' transform='rotate(45)'/>
	<use xlink:href='#gpPt11' id='gpPt12' fill='currentColor' stroke='none'/>
	<path id='gpPt13' stroke-width='0.222' stroke='currentColor' d='M0,1.330 L1.265,0.411 L0.782,-1.067 L-0.782,-1.076 L-1.265,0.411 z'/>
	<use xlink:href='#gpPt13' id='gpPt14' fill='currentColor' stroke='none'/>
	<filter id='textbox' filterUnits='objectBoundingBox' x='0' y='0' height='1' width='1'>
	  <feFlood flood-color='#FFFFFF' flood-opacity='1' result='bgnd'/>
	  <feComposite in='SourceGraphic' in2='bgnd' operator='atop'/>
	</filter>
	<filter id='greybox' filterUnits='objectBoundingBox' x='0' y='0' height='1' width='1'>
	  <feFlood flood-color='lightgrey' flood-opacity='1' result='grey'/>
	  <feComposite in='SourceGraphic' in2='grey' operator='atop'/>
	</filter>
</defs>
<g fill="none" color="#FFFFFF" stroke="black" stroke-width="1.00" stroke-linecap="butt" stroke-linejoin="miter">
</g>
<g fill="none" color="black" stroke="currentColor" stroke-width="1.00" stroke-linecap="butt" stroke-linejoin="miter">
	<path stroke='black'  d='M53.9,411.3 L62.9,411.3 M615.0,411.3 L606.0,411.3  '/>	<g transform="translate(45.6,415.2)" stroke="none" fill="black" font-family="Arial" font-size="12.00"  text-anchor="end">
		<text><tspan font-family="Arial" > 270</tspan></text>
	</g>
</g>
<g fill="none" color="black" stroke="currentColor" stroke-width="1.00" stroke-linecap="butt" stroke-linejoin="miter">
	<path stroke='black'  d='M53.9,367.0 L62.9,367.0 M615.0,367.0 L606.0,367.0  '/>	<g transform="translate(45.6,370.9)" stroke="none" fill="black" font-family="Arial" font-size="12.00"  text-anchor="end">
		<text><tspan font-family="Arial" > 280</tspan></text>
	</g>
</g>
<g fill="none" color="black" stroke="currentColor" stroke-width="1.00" stroke-linecap="butt" stroke-linejoin="miter">
	<path stroke='black'  d='M53.9,322.7 L62.9,322.7 M615.0,322.7 L606.0,322.7  '/>	<g transform="translate(45.6,326.6)" stroke="none" fill="black" font-family="Arial" font-size="12.00"  text-anchor="end">
		<text><tspan font-family="Arial" > 290</tspan></text>
	</g>
</g>
<g fill="none" color="black" stroke="currentColor" stroke-width="1.00" stroke-linecap="butt" stroke-linejoin="miter">
	<path stroke='black'  d='M53.9,278.4 L62.9,278.4 M615.0,278.4 L606.0,278.4  '/>	<g transform="translate(45.6,282.3)" stroke="none" fill="black" font-family="Arial" font-size="12.00"  text-anchor="end">
		<text><tspan font-family="Arial" > 300</tspan></text>
	</g>
</g>
<g fill="none" color="black" stroke="currentColor" stroke-width="1.00" stroke-linecap="butt" stroke-linejoin="miter">
	<path stroke='black'  d='M53.9,234.1 L62.9,234.1 M615.0,234.1 L606.0,234.1  '/>	<g transform="translate(45.6,238.0)" stroke="none" fill="black" font-family="Arial" font-size="12.00"  text-anchor="end">
		<text><tspan font-family="Arial" > 310</tspan></text>
	</g>
</g>
<g fill="none" color="black" stroke="currentColor" stroke-width="1.00" stroke-linecap="butt" stroke-linejoin="miter">
	<path stroke='black'  d='M53.9,189.8 L62.9,189.8 M615.0,189.8 L606.0,189.8  '/>	<g transform="translate(45.6,193.7)" stroke="none" fill="black" font-family="Arial" font-size="12.00"  text-anchor="end">
		<text><tspan font-family="Arial" > 320</tspan></text>
	</g>
</g>
<g fill="none" color="black" stroke="currentColor" stroke-width="1.00" stroke-linecap="butt" stroke-linejoin="miter">
	<path stroke='black'  d='M53.9,145.6 L62.9,145.6 M615.0,145.6 L606.0,145.6  '/>	<g transform="translate(45.6,149.5)" stroke="none" fill="black" font-family="Arial" font-size="12.00"  text-anchor="end">
		<text><tspan font-family="Arial" > 330</tspan></text>
	</g>
</g>
<g fill="none" color="black" stroke="currentColor" stroke-width="1.00" stroke-linecap="butt" stroke-linejoin="miter">
	<path stroke='black'  d='M53.9,101.3 L62.9,101.3 M615.0,101.3 L606.0,101.3  '/>	<g transform="translate(45.6,105.2)" stroke="none" fill="black" font-family="Arial" font-size="12.00"  text-anchor="end">
		<text><tspan font-family="Arial" > 340</tspan></text>
	</g>
</g>
<g fill="none" color="black" stroke="currentColor" stroke-width="1.00" stroke-linecap="butt" stroke-linejoin="miter">
	<path stroke='black'  d='M53.9,57.0 L62.9,57.0 M615.0,57.0 L606.0,57.0  '/>	<g transform="translate(45.6,60.9)" stroke="none" fill="black" font-family="Arial" font-size="12.00"  text-anchor="end">
		<text><tspan font-family="Arial" > 350</tspan></text>
	</g>
</g>
<g fill="none" color="black" stroke="currentColor" stroke-width="1.00" stroke-linecap="butt" stroke-linejoin="miter">
	<path stroke='black'  d='M53.9,428.0 L53.9,419.0 M53.9,18.1 L53.9,27.1  '/>	<g transform="translate(53.9,449.9)" stroke="none" fill="black" font-family="Arial" font-size="12.00"  text-anchor="middle">
		<text><tspan font-family="Arial" > 0</tspan></text>
	</g>
</g>
<g fill="none" color="black" stroke="currentColor" stroke-width="1.00" stroke-linecap="butt" stroke-linejoin="miter">
	<path stroke='black'  d='M110.6,428.0 L110.6,419.0 M110.6,18.1 L110.6,27.1  '/>	<g transform="translate(110.6,449.9)" stroke="none" fill="black" font-family="Arial" font-size="12.00"  text-anchor="middle">
		<text><tspan font-family="Arial" > 10</tspan></text>
	</g>
</g>
<g fill="none" color="black" stroke="currentColor" stroke-width="1.00" stroke-linecap="butt" stroke-linejoin="miter">
	<path stroke='black'  d='M167.3,428.0 L167.3,419.0 M167.3,18.1 L167.3,27.1  '/>	<g transform="translate(167.3,449.9)" stroke="none" fill="black" font-family="Arial" font-size="12.00"  text-anchor="middle">
		<text><tspan font-family="Arial" > 20</tspan></text>
	</g>
</g>
<g fill="none" color="black" stroke="currentColor" stroke-width="1.00" stroke-linecap="butt" stroke-linejoin="miter">
	<path stroke='black'  d='M223.9,428.0 L223.9,419.0 M223.9,18.1 L223.9,27.1  '/>	<g transform="translate(223.9,449.9)" stroke="none" fill="black" font-family="Arial" font-size="12.00"  text-anchor="middle">
		<text><tspan font-family="Arial" > 30</tspan></text>
	</g>
</g>
<g fill="none" color="black" stroke="currentColor" stroke-width="1.00" stroke-linecap="butt" stroke-linejoin="miter">
	<path stroke='black'  d='M280.6,428.0 L280.6,419.0 M280.6,18.1 L280.6,27.1  '/>	<g transform="translate(280.6,449.9)" stroke="none" fill="black" font-family="Arial" font-size="12.00"  text-anchor="middle">
		<text><tspan font-family="Arial" > 40</tspan></text>
	</g>
</g>
<g fill="none" color="black" stroke="currentColor" stroke-width="1.00" stroke-linecap="butt" stroke-linejoin="miter">
	<path stroke='black'  d='M337.3,428.0 L337.3,419.0 M337.3,18.1 L337.3,27.1  '/>	<g transform="translate(337.3,449.9)" stroke="none" fill="black" font-family="Arial" font-size="12.00"  text-anchor="middle">
		<text><tspan font-family="Arial" > 50</tspan></text>
	</g>
</g>
<g fill="none" color="black" stroke="currentColor" stroke-width="1.00" stroke-linecap="butt" stroke-linejoin="miter">
	<path stroke='black'  d='M394.0,428.0 L394.0,419.0 M394.0,18.1 L394.0,27.1  '/>	<g transform="translate(394.0,449.9)" stroke="none" fill="black" font-family="Arial" font-size="12.00"  text-anchor="middle">
		<text><tspan font-family="Arial" > 60</tspan></text>
	</g>
</g>
<g fill="none" color="black" stroke="currentColor" stroke-width="1.00" stroke-linecap="butt" stroke-linejoin="miter">
	<path stroke='black'  d='M450.6,428.0 L450.6,419.0 M450.6,18.1 L450.6,27.1  '/>	<g transform="translate(450.6,449.9)" stroke="none" fill="black" font-family="Arial" font-size="12.00"  text-anchor="middle">
		<text><tspan font-family="Arial" > 70</tspan></text>
	</g>
</g>
<g fill="none" color="black" stroke="currentColor" stroke-width="1.00" stroke-linecap="butt" stroke-linejoin="miter">
	<path stroke='black'  d='M507.3,428.0 L507.3,419.0 M507.3,18.1 L507.3,27.1  '/>	<g transform="translate(507.3,449.9)" stroke="none" fill="black" font-family="Arial" font-size="12.00"  text-anchor="middle">
		<text><tspan font-family="Arial" > 80</tspan></text>
	</g>
</g>
<g fill="none" color="black" stroke="currentColor" stroke-width="1.00" stroke-linecap="butt" stroke-linejoin="miter">
	<path stroke='black'  d='M564.0,428.0 L564.0,419.0 M564.0,18.1 L564.0,27.1  '/>	<g transform="translate(564.0,449.9)" stroke="none" fill="black" font-family="Arial" font-size="12.00"  text-anchor="middle">
		<text><tspan font-family="Arial" > 90</tspan></text>
	</g>
</g>
<g fill="none" color="black" stroke="currentColor" stroke-width="1.00" stroke-linecap="butt" stroke-linejoin="miter">
</g>
<g fill="none" color="black" stroke="currentColor" stroke-width="1.00" stroke-linecap="butt" stroke-linejoin="miter">
	<path stroke='black'  d='M53.9,18.1 L53.9,428.0 L615.0,428.0 L615.0,18.1 L53.9,18.1 Z  '/></g>
<g fill="none" color="black" stroke="currentColor" stroke-width="1.00" stroke-linecap="butt" stroke-linejoin="miter">
</g>
	<g id="gnuplot_plot_1" ><title>pages</title>
<g fill="none" color="black" stroke="currentColor" stroke-width="1.00" stroke-linecap="butt" stroke-linejoin="miter">
	<g transform="translate(275.6,467.9)" stroke="none" fill="black" font-family="Arial" font-size="12.00"  text-anchor="end">
		<text><tspan font-family="Arial" >pages</tspan></text>
	</g>
</g>
<g fill="none" color="black" stroke="currentColor" stroke-width="1.00" stroke-linecap="butt" stroke-linejoin="miter">
	<path stroke='rgb(148,   0, 211)'  d='M283.9,464.0 L326.1,464.0 M53.9,402.4 L59.6,393.5 L65.2,375.8 L70.9,375.8 L76.6,371.4 L82.2,371.4
		L87.9,371.4 L93.6,367.0 L99.2,362.5 L104.9,362.5 L110.6,362.5 L116.2,362.5 L121.9,362.5 L127.6,362.5
		L133.2,362.5 L138.9,362.5 L144.6,358.1 L150.3,358.1 L155.9,358.1 L161.6,353.7 L167.3,353.7 L172.9,353.7
		L178.6,353.7 L184.3,353.7 L189.9,353.7 L195.6,353.7 L201.3,353.7 L206.9,349.3 L212.6,349.3 L218.3,349.3
		L223.9,349.3 L229.6,344.8 L235.3,344.8 L240.9,344.8 L246.6,344.8 L252.3,344.8 L257.9,340.4 L263.6,340.4
		L269.3,340.4 L274.9,336.0 L280.6,336.0 L286.3,336.0 L291.9,336.0 L297.6,336.0 L303.3,331.5 L308.9,331.5
		L314.6,331.5 L320.3,331.5 L325.9,327.1 L331.6,327.1 L337.3,327.1 L343.0,327.1 L348.6,327.1 L354.3,327.1
		L360.0,327.1 L365.6,322.7 L371.3,322.7 L377.0,322.7 L382.6,322.7 L388.3,322.7 L394.0,322.7 L399.6,322.7
		L405.3,322.7 L411.0,322.7 L416.6,318.3 L422.3,318.3 L428.0,318.3 L433.6,318.3 L439.3,313.8 L445.0,313.8
		L450.6,313.8 L456.3,313.8 L462.0,309.4 L467.6,309.4 L473.3,309.4 L479.0,309.4 L484.6,305.0 L490.3,305.0
		L496.0,305.0 L501.6,300.5 L507.3,300.5 L513.0,300.5 L518.6,300.5 L524.3,300.5 L530.0,296.1 L535.7,296.1
		L541.3,291.7 L547.0,291.7 L552.7,291.7 L558.3,287.3 L564.0,282.8 L569.7,282.8 L575.3,269.5 L581.0,269.5
		L586.7,269.5 L592.3,265.1 L598.0,265.1 L603.7,243.0 L609.3,203.1 L615.0,26.0  '/></g>
	</g>
	<g id="gnuplot_plot_2" ><title>pages+cached</title>
<g fill="none" color="black" stroke="currentColor" stroke-width="1.00" stroke-linecap="butt" stroke-linejoin="miter">
	<g transform="translate(275.6,485.9)" stroke="none" fill="black" font-family="Arial" font-size="12.00"  text-anchor="end">
		<text><tspan font-family="Arial" >pages+cached</tspan></text>
	</g>
</g>
<g fill="none" color="black" stroke="currentColor" stroke-width="1.00" stroke-linecap="butt" stroke-linejoin="miter">
	<path stroke='rgb(  0, 158, 115)'  d='M283.9,482.0 L326.1,482.0 M53.9,420.1 L59.6,420.1 L65.2,411.3 L70.9,411.3 L76.6,411.3 L82.2,411.3
		L87.9,411.3 L93.6,411.3 L99.2,406.8 L104.9,406.8 L110.6,406.8 L116.2,406.8 L121.9,406.8 L127.6,406.8
		L133.2,402.4 L138.9,402.4 L144.6,402.4 L150.3,402.4 L155.9,402.4 L161.6,402.4 L167.3,402.4 L172.9,402.4
		L178.6,402.4 L184.3,402.4 L189.9,402.4 L195.6,402.4 L201.3,402.4 L206.9,398.0 L212.6,398.0 L218.3,398.0
		L223.9,398.0 L229.6,393.5 L235.3,393.5 L240.9,393.5 L246.6,393.5 L252.3,393.5 L257.9,389.1 L263.6,389.1
		L269.3,389.1 L274.9,384.7 L280.6,384.7 L286.3,384.7 L291.9,384.7 L297.6,384.7 L303.3,384.7 L308.9,380.3
		L314.6,380.3 L320.3,371.4 L325.9,367.0 L331.6,358.1 L337.3,358.1 L343.0,340.4 L348.6,336.0 L354.3,327.1
		L360.0,313.8 L365.6,313.8 L371.3,309.4 L377.0,309.4 L382.6,305.0 L388.3,305.0 L394.0,300.5 L399.6,300.5
		L405.3,300.5 L411.0,300.5 L416.6,296.1 L422.3,296.1 L428.0,296.1 L433.6,296.1 L439.3,296.1 L445.0,291.7
		L450.6,291.7 L456.3,291.7 L462.0,291.7 L467.6,291.7 L473.3,291.7 L479.0,287.3 L484.6,287.3 L490.3,287.3
		L496.0,287.3 L501.6,287.3 L507.3,287.3 L513.0,287.3 L518.6,287.3 L524.3,287.3 L530.0,282.8 L535.7,282.8
		L541.3,282.8 L547.0,278.4 L552.7,274.0 L558.3,274.0 L564.0,269.5 L569.7,265.1 L575.3,260.7 L581.0,247.4
		L586.7,247.4 L592.3,203.1 L598.0,181.0 L603.7,163.3 L609.3,127.8 L615.0,52.6  '/></g>
	</g>
	<g id="gnuplot_plot_3" ><title>score p10=130</title>
<g fill="none" color="black" stroke="currentColor" stroke-width="1.00" stroke-linecap="butt" stroke-linejoin="miter">
	<g transform="translate(467.2,467.9)" stroke="none" fill="black" font-family="Arial" font-size="12.00"  text-anchor="end">
		<text><tspan font-family="Arial" >score p10=130</tspan></text>
	</g>
</g>
<g fill="none" color="black" stroke="currentColor" stroke-width="1.00" stroke-linecap="butt" stroke-linejoin="miter">
	<path stroke='rgb( 86, 180, 233)'  d='M475.5,464.0 L517.7,464.0  '/></g>
	</g>
	<g id="gnuplot_plot_4" ><title>score median=250</title>
<g fill="none" color="black" stroke="currentColor" stroke-width="1.00" stroke-linecap="butt" stroke-linejoin="miter">
	<g transform="translate(467.2,485.9)" stroke="none" fill="black" font-family="Arial" font-size="12.00"  text-anchor="end">
		<text><tspan font-family="Arial" >score median=250</tspan></text>
	</g>
</g>
<g fill="none" color="black" stroke="currentColor" stroke-width="1.00" stroke-linecap="butt" stroke-linejoin="miter">
	<path stroke='rgb(230, 159,   0)'  d='M475.5,482.0 L517.7,482.0  '/></g>
	</g>
<g fill="none" color="#FFFFFF" stroke="rgb(230, 159,   0)" stroke-width="2.00" stroke-linecap="butt" stroke-linejoin="miter">
</g>
<g fill="none" color="black" stroke="currentColor" stroke-width="2.00" stroke-linecap="butt" stroke-linejoin="miter">
</g>
<g fill="none" color="black" stroke="black" stroke-width="1.00" stroke-linecap="butt" stroke-linejoin="miter">
</g>
<g fill="none" color="black" stroke="currentColor" stroke-width="1.00" stroke-linecap="butt" stroke-linejoin="miter">
	<path stroke='black'  d='M53.9,18.1 L53.9,428.0 L615.0,428.0 L615.0,18.1 L53.9,18.1 Z  '/></g>
<g fill="none" color="black" stroke="currentColor" stroke-width="1.00" stroke-linecap="butt" stroke-linejoin="miter">
</g>
</g>
</svg>
